X:1
T:Title
%%score { ( 1 3 ) | ( 2 4 ) }
L:1/8
M:4/4
K:Bb
V:1 bass nm="Grand Piano"
V:3 bass 
V:2 bass 
V:4 bass 
V:1
 z4 z2[Q:1/4=100] [F,B,D][F,CE] | z4 z2 [DB]2 | [Fd]6 [Fd][^Fc] | %3
 [GB]2 [^FA][GB] [Ac][GB][=FA][EG] |[M:3/4] [EG]4 F2 |[M:1/4] AB |[M:4/4] c3 [Fc] [FB]2 [Fc]2 | %7
 [Fd]4 B2 [Ec][DB] | [CA]6 [CF]2 |[M:3/4] [=EG]2 F4 |[M:1/4] FF |[M:4/4] z GAB c2 e2 | %12
 [Ge]2 [Fd]4 [Fd][Fd] | [^Fd]3 [Fc] B2 c2 |[M:3/4] c6 |[M:1/4] de |[M:4/4] f3 d BcBc | %17
 G4- [Ge]2 dc | B6 d2 | c2 [DB]6 |] %20
V:2
 z4 z2 B,,B,, | z G z G z G, .[B,,F,]2 | [B,,F,]6 [B,,B,][D,B,] | [E,B,]2 [E,B,]2 [E,B,]2 [E,B,]2 | %4
[M:3/4] z2 z2 D2 |[M:1/4] [F,F][F,G,F] |[M:4/4] [F,A,F]3 [E,A,] [D,B,]2 [C,A,]2 | %7
 B,4 [F,D]2 [A,,F,][B,,F,] | [C,F,]6 [C,A,]2 |[M:3/4] [C,B,]2 [F,A,]4 |[M:1/4] [F,A,][F,A,] | %11
[M:4/4] A,B,[F,F]-[F,DF] [F,A,F]2 [F,A,F]2 | [B,,B,]6 [B,,B,][B,,B,] | %13
 [D,A,]3 [D,A,][K:treble] [G,B,G]2 [G,B,=E]2 |[M:3/4] [F,A,F]6 |[M:1/4] [B,F][B,CF] | %16
[M:4/4] [B,DF]3 [B,F][K:bass] B,,2 [D,B,]2 | z4 B,2 [E,B,F][E,G,E] | [F,D]6 [F,B,F]2 | %19
 [F,A,E]2 [B,,B,]6 |] %20
V:3
 x8 | .[B,DF]2 .[B,DF]2 .[F,DF]2 z G, | x8 | x8 |[M:3/4] x6 |[M:1/4] x2 |[M:4/4] x8 | x8 | x8 | %9
[M:3/4] x6 |[M:1/4] x2 |[M:4/4] F2 z2 z4 | x8 | x8 |[M:3/4] x6 |[M:1/4] x2 |[M:4/4] z4 [D_A]2 z2 | %17
 [EB]4 z4 | x8 | x8 |] %20
V:4
 x8 | B,,2 B,,2 B,,2 z2 | x8 | x8 |[M:3/4] [B,,B,]6 |[M:1/4] x2 |[M:4/4] x8 | B,,6 z2 | x8 | %9
[M:3/4] x6 |[M:1/4] x2 |[M:4/4] F,2 .C2 z4 | x8 | x4[K:treble] x4 |[M:3/4] x6 |[M:1/4] x2 | %16
[M:4/4] x4[K:bass] x4 | E,6 z2 | x8 | x8 |] %20

